src/basic/400/u29C0-left.svg

<svg width="26" height="32" viewBox="0 0 26 32" fill="none" xmlns="http://www.w3.org/2000/svg">
<path fill-rule="evenodd" clip-rule="evenodd" d="M25,16c0,-6.62742 -5.3726,-12 -12,-12c-6.62742,0 -12,5.37258 -12,12c0,6.6274 5.37258,12 12,12c6.6274,0 12,-5.3726 12,-12zM13,3c7.1797,0 13,5.8203 13,13c0,7.1797 -5.8203,13 -13,13c-7.1797,0 -13,-5.8203 -13,-13c0,-7.1797 5.8203,-13 13,-13zM13.1204,12.6746l0.3254,-0.3796l0.7592,0.6508l-0.3254,0.3796l-2.7211,3.1746l2.7211,3.1746l0.3254,0.3796l-0.7592,0.6508l-0.3254,-0.3796l-3,-3.5l-0.27894,-0.3254l0.27894,-0.3254z" fill="black"/>
</svg>

<svg width="26" height="32" viewBox="0 0 26 32" fill="none" xmlns="http://www.w3.org/2000/svg">
<path fill-rule="evenodd" clip-rule="evenodd" d="M25 16C25 9.37258 19.6274 4 13 4C6.37258 4 1 9.37258 1 16C1 22.6274 6.37258 28 13 28C19.6274 28 25 22.6274 25 16ZM13 3C20.1797 3 26 8.8203 26 16C26 23.1797 20.1797 29 13 29C5.8203 29 0 23.1797 0 16C0 8.8203 5.8203 3 13 3ZM13.1204 12.6746L13.4458 12.295L14.205 12.9458L13.8796 13.3254L11.1585 16.5L13.8796 19.6746L14.205 20.0542L13.4458 20.705L13.1204 20.3254L10.1204 16.8254L9.84146 16.5L10.1204 16.1746L13.1204 12.6746Z" fill="black"/>
</svg>
